X:6422
T:Gold Stud
M:4/4
L:1/8
C:Stephen Cooney
S:Wild Asparagus - "Call of the Wild"
R:Reel
K:AMin
"Am"A2 Ac "G"B2 Bd|"Am"c2 ce "Dm"d2 df|"Am"e2 ce "G"d2 Bd|"F"cBAB "G"AGE
G|"Am"A2 Ac "G"B2 Bd|"Am"c2 ce "Dm"dcdf|"Am"e2 ce "G"d2
Bd|"Am"c2 Bc AGEG:|
"Dm"f3 ffecf|"Am"e3 eedce|"G"d3 ddcBd|"Am"c2 Bc Acde|
"Dm"f3 ffecf|"Am"e3 eedce|"G"dcde dcBd|"Am"c2 Bc "D"A4:|
